X:1
T:Les Sérénades
T:Sérénade de toujours
T:à Eugène Cougoul
T:5. Sérénade de toujours
T:Augusta Holmès
T:(Holmès)
T:Les Sérénades
T:OpenScore (CC0)
T:OpenScore (CC0)
T:OpenScore (CC0)
T:OpenScore (CC0)
T:OpenScore (CC0)
C:Augusta Mary Anne Holmès
Z:(Holmès)
Z:OpenScore (CC0)
%%score 1 { ( 2 5 ) | ( 3 4 ) }
L:1/8
Q:1/4=120
M:3/4
K:D
V:1 treble nm="Chant\nVoice"
V:2 treble nm="Piano"
V:5 treble 
V:3 bass 
V:4 bass 
V:1
"^Allegro moderato""_Allegro moderato" z6 | z6 |!p! (A4 F B | A4)!<(! (F B | G2!<)! c3!>(! B | %5
w: ||Ou- vre tes|yeux, voi- ci|l'au- be nou-|
 (B4 A2))!>)! |!f! (d4 =c _B | =A4)!f! z (F |!<(! B3 d!<)! c B | e4)!p! (A2- |!<(! A2 ^A3!<)! F | %11
w: vel- le;|Ou- vre ton|cœur, voi-|\- ci le re- nou-|veau! Ou-|* vre tes|
 d2-) d/ z/!f! (d c d | e2-) e/ z/!f! (e d e |!<(! =f4)!<)! f2 |!f! (^f6 |!>(! e2 d2 F)!>)! z | %16
w: bras, _ ou- vre tes|bras, _ voi- ci l'a-|mour fi-|dè-|* * le|
!p! (A4 F B | G6) | B2 c3 A | d4 z2 | z6 | z6 | z6 | z6 | z6 | z6 | z6 | z6 |!p! (A4 F B | %29
w: Qui te sui-|vra|jus- qu'au tom-|beau!|||||||||Viens! per- dons-|
 (A4) F B | G2 c3 B | (B4 A2)) |!<(! (d4 ^c d!<)! | =f3)!>(! (d =c _B!>)! | =F4 G2 | =A4) z2 | %36
w: nous sous la|jeu- ne feuil-|lé- e|Où la co-|lombe, au fond du|nid frois-|sé,|
!p! (=B4 G c | B4) G c | B6- |!<(! B2 (^A2 ^G2!<)! |!mf!!>(! f6 | e2)!>)!!p! z2!<(! d2!<)! | %42
w: Rou- cou- le-|ra, par nos|chants|_ ré- veil-|\- lé-|e: «Ils|
!f!!>(! (g6 | f3 d A!mp! F!>)! |!<(! F A!<)! B2!>(! e2 | d4)!>)! z2 | z6 | z6 | z6 | z6 | z6 | z6 | %52
w: s'ai-|* ment plus en-|\- cor que l'an pas-|sé!»|||||||
 z6 | z6 |!pp! (A4 F B | A4 F B | G2 c3 B | B4 A2) |!p! d4 =c _B | =A4!<(! F B | (G3 A) c B!<)! | %61
w: ||Oh! viens mê-|ler en l'ex-|ta- se di-|\- vi- ne|Les sou- ve-|nirs aux es-|poirs _ ra- di-|
!mf! e4 z2 |!p! (A4 (FB) | A4) (F B | G6) |!<(! (A2 B c d c!<)! |!mf! (f6) | e6 | d4) z2 | %69
w: \- eux!|Oui, mon _|cœur pour tou-|jours|souf- fre dans ta poi-|tri-||ne,|
 z2!<(! d2 d2!<)! |!f! (a6 | f2) d3 F | _B6- | _B2 g2 (f2 | A6) |!p! B4 e2 | d6- | d2 z2 z2 | z6 | %79
w: Et ton|â-|me à ja-|mais|_ res- plen-|dit|dans mes|yeux!|_||
 z6 | z6 | z6 | z6 | z6 | z6 | z6 |] %86
w: |||||||
V:2
!pp! z2 ([fa]/[db]/[fa]/[db]/[fa]) z | z2 ([fa]/[db]/[fa]/[db]/[fa]) z | %2
!p! z2 ([fa]/[db]/[fa]/[db]/[fa]) z |"_cresc." z2!<(! ([fa]/[db]/[fa]/[db]/!<)![fa]) z | %4
!f! z2 ([gb]/[cc']/[gb]/[cc']/[gb]) z |!p! z2 ([ga]/[cb]/[ga]/[cb]/[ga]) z | %6
!f! z2 ([=f_a]/[d_b]/[fa]/[db]/[fa]) z | z2 ([^f=a]/[d=b]/[fa]/[db]/[fa]) z | %8
 z2 ([eg]/[Ba]/[eg]/[Ba]/[eg]) z | z2 ([ga]/[cb]/[ga]/[cb]/[ga]) z | %10
 z2 ([ef]/[^Ag]/[ef]/[Ag]/[ef]) z | z2 ([df]/[Bg]/[df]/[Bg]/[df]) z | %12
"_crescendo" z2 ([de]/[^Gf]/[de]/[Gf]/[de]) z | z2 ([_e=f]/[Ag]/[ef]/[Ag]/[ef]) z | %14
 z2!f! ([=e^f]/[^Ag]/[ef]/[Ag]/[ef]) z |!>(! z2 ([df]/[Bg]/[df]/[Bg]/[df])!>)! z | %16
!p! z2 ([df]/[Ag]/[df]/[Ag]/[df]) z | z2 ([dg]/[Ba]/[dg]/[Ba]/[dg]) z | %18
 z2 ([ga]/[cb]/[ga]/[cb]/[ga]) z | z2 ([fa]/[db]/[fa]/[db]/[fa]) z | %20
!pp! z2"^M.G." ([EG]/B/[EG]/B/[EG]) z | z2 ([EG]/B/[EG]/B/[EG]) z | z2 (G/B/G/B/G) z | %23
 z2 ([EG]/B/[EG]/B/[EG]) z |!pp! z2 ([=F_A]/_B/[FA]/B/[FA]) z | z2 ([D^F]/=A/[DF]/A/[DF]) z | %26
 z2 ([EG]/A/[EG]/A/G) z |"^M.D." D2 z2 z2 |!pp! z2 ([fa]/[db]/[fa]/[db]/[fa]) z | %29
 z2 ([fa]/[db]/[fa]/[db]/[fa]) z | z2 ([gb]/[cc']/[gb]/[cc']/[gb]) z | %31
 z2 ([ga]/[cb]/[ga]/[cb]/[ga]) z | z2!<(! ([=f_a]/[d_b]/[fa]/[db]/[fa]) z!<)! | %33
 z2 ([_Bd]/[_A=f]/[Bd]/[Af]/[Bd]) z |!>(! z2 ([=f_a]/[d_b]/[fa]/[db]/[fa])!>)! z | %35
 z2 ([g=a]/[^c=b]/[ga]/[cb]/[ga]) z |!pp! z2 ([Bd]/[Ge]/[Bd]/[Ge]/[Bd])"_crescendo" z | %37
 z2 ([de]/[Bg]/[de]/[Bg]/[de]) z | z2 ([eg]/[db]/[eg]/[db]/[eg])!mp! z | %39
 z2 ([^eb]/[cc']/[eb]/[cc']/[eb]) z |!mf! z2 ([f^a]/[ec']/[fa]/[ec']/[fa]) z | %41
!p! z2 ([ef]/[^A=g]/[ef]/[Ag]/[df]) z |!p! z2 ([_Bd]/[Ge]/[Bd]/[Ge]/[Bd]) z | %43
 z2 ([df]/[Ag]/[df]/[Ag]/[df]) z | z2 ([ga]/[cb]/[ga]/[cb]/[ga]) z | %45
 z2 ([fa]/[db]/[fa]/[db]/[fa]) z |!pp! z2"^M.G." ([EG]/B/[EG]/B/[EG]) z | %47
 z2 ([EG]/B/[EG]/B/[EG]) z | z2 (G/B/G/B/G) z | z2 ([EG]/B/[EG]/B/[EG]) z | %50
 z2 ([=F_A]/_B/[FA]/B/[FA]) z | z2 ([D^F]/=A/[DF]/A/[DF]) z | z2 ([EG]/A/[EG]/A/G) z | %53
"^M.D." D2 z2 z2 | z2 ([fa]/[db]/[fa]/[db]/[fa]) z | z2 ([fa]/[db]/[fa]/[db]/[fa]) z | %56
 z2 ([gb]/[cc']/[gb]/[cc']/[gb]) z | z2 ([ga]/[cb]/[ga]/[cb]/[ga]) z | %58
 z2 ([=f_a]/[d_b]/[fa]/[db]/[fa]) z |"_crescendo" z2 ([^f=a]/[d=b]/[fa]/[db]/[fa]) z | %60
 z2 ([eg]/[Ba]/[eg]/[Ba]/[eg]) z |!mf! z2 ([eg]/[Ba]/[eg]/[Ba]/[eg]) z | %62
!p! z2 ([fa]/[db]/[fa]/[db]/[fa]) z | z2 ([fa]/[db]/[fa]/[db]/[fa]) z | %64
 z2 ([gb]/[cc']/[gb]/[cc']/[gb]) z | z2 ([ga]/[cb]/[ga]/[cb]/[ga]) z | %66
!mf! z2 ([e^a]/[cb]/[ea]/[cb]/[ea]) z | z2!<(! ([ef]/[^Ag]/[ef]/[Ag]/[ef]) z | %68
 z2 ([df]/[Bg]/[df]/[Bg]/[df])!<)! z |!f! z2 ([dg]/[_Ba]/[dg]/[Ba]/[dg]) z | %70
!f! z2 ([fa]/[db]/[fa]/[db]/[fa]) z | z2 ([fa]/[db]/[fa]/[db]/[fa]) z | %72
 z2 ([g_b]/[e=c']/[gb]/[ec']/[gb]) z | z2 ([g_b]/[e=c']/[gb]/[ec']/[fa]) z | %74
!p! z2 ([fa]/[d=b]/[fa]/[db]/[fa]) z | z2 ([ga]/[cb]/[ga]/[cb]/[ga]) z | %76
!pp! z2 ([fa]/[db]/[fa]/[db]/[fa]) z | z2 ([fa]/[db]/[fa]/[db]/[fa]) z | %78
 z2"^M.G." ([EG]/B/[EG]/B/[EG]) z | z2 ([EG]/B/[EG]/B/[EG]) z | z2 (G/B/G/B/G) z | %81
 z2 ([EG]/B/[EG]/B/[EG]) z |!pp! z2 ([=F_A]/_B/[FA]/B/[FA]) z | z2 ([D^F]/=A/[DF]/A/[DF]) z | %84
 z2 ([EG]/A/[EG]/A/G) z |"^M.D." D2!pp! !arpeggio![fad']2 !fermata!z2 |] %86
V:3
!ped! z2 ([A,D]/F/[A,D]/F/[A,D])!ped-up! z |!ped! z2 ([A,D]/F/[A,D]/F/[A,D])!ped-up! z | %2
!ped! z2 ([A,D]/F/[A,D]/F/[A,D])!ped-up! z |!ped! z2 ([A,D]/F/[A,D]/F/[A,D])!ped-up! z | %4
!ped! z2 ([A,C]/G/[A,C]/G/[A,C])!ped-up! z |!ped! z2 ([A,C]/G/[A,C]/G/[A,C])!ped-up! z | %6
!ped! z2 ([_B,D]/=F/[B,D]/F/[B,D])!ped-up! z |!ped! z2 ([=A,D]/^F/[A,D]/F/[A,D])!ped-up! z | %8
!ped! z2 ([A,E]/G/[A,E]/G/[A,E])!ped-up! z |!ped! z2 ([A,C]/G/[A,C]/G/[A,C])!ped-up! z | %10
!ped! z2 ([F,C]/E/[F,C]/E/[F,C])!ped-up! z |!ped! z2 ([F,B,]/D/[F,B,]/D/[F,B,])!ped-up! z | %12
!ped! z2 ([E,B,]/D/[E,B,]/D/[E,B,])!ped-up! z |!ped! z2 ([=F,=C]/_E/[F,C]/E/[F,C])!ped-up! z | %14
!ped! z2 ([^F,^C]/E/[F,C]/E/[F,C])!ped-up! z |!ped! z2 ([F,B,]/D/[F,B,]/D/[F,B,])!ped-up! z | %16
!ped! z2 ([A,D]/F/[A,D]/F/[A,D])!ped-up! z |!ped! z2 ([A,D]/G/[A,D]/G/[A,D])!ped-up! z | %18
!ped! z2 ([A,E]/G/[A,E]/G/[A,E])!ped-up! z |!ped! z2 ([A,D]/F/[A,D]/F/[A,D])!ped-up! z | %20
"^M.D.""_M.G.""_una corda" A,,2 z2 z2 | A,,2 z2 z2 | A,,2 z2 z2 | A,,2 z2 z2 | D2 _B,3 =F, | %25
 =A,4 F,B, | G,A, C2 E2 |!ped! z2 ([A,D]/F/[A,D]/F/[A,D])!ped-up! z | %28
!ped! z2 ([A,D]/F/[A,D]/F/[A,D])!ped-up! z |!ped! z2 ([A,D]/F/[A,D]/F/[A,D])!ped-up! z | %30
!ped! z2 ([A,C]/G/[A,C]/G/[A,C])!ped-up! z |!ped! z2 ([A,C]/G/[A,C]/G/[A,C])!ped-up! z | %32
!<(!!ped! z2 ([=F,_B,]/D/[F,B,]/D/[F,B,])!<)!!ped-up! z | %33
!ped! z2 ([=F,_B,]/D/[F,B,]/D/[F,B,])!ped-up! z | %34
!ped! z2!>(! ([=F,_B,]/D/[F,B,]/D/[F,B,])!ped-up!!>)! z | %35
!ped! z2 ([=E,A,]/[A,^C]/[E,A,]/[A,C]/[E,A,])!ped-up! z | %36
!ped! z2 ([G,B,]/E/[G,B,]/E/[G,B,])!ped-up! z |!ped! z2 ([G,B,]/E/[G,B,]/E/[G,B,])!ped-up! z | %38
!ped! z2 ([G,B,]/E/[G,B,]/E/[G,B,])!ped-up! z |!ped! z2 ([^G,C]/^E/[G,C]/E/[G,C])!ped-up! z | %40
!ped! z2 ([F,C]/E/[F,C]/E/[F,C])!ped-up! z |!ped! z2 ([F,C]/E/[F,C]/E/[B,D])!ped-up! z | %42
!ped! z2 ([G,_B,]/E/[G,B,]/E/[G,B,])!ped-up! z |!ped! z2 ([A,D]/F/[A,D]/F/[A,D])!ped-up! z | %44
!ped! z2 ([A,E]/G/[A,E]/G/[A,E])!ped-up! z |!ped! z2 ([A,D]/F/[A,D]/F/[A,D])!ped-up! z | %46
"^M.D.""_M.G.""_una corda" A,,2 z2 z2 | A,,2 z2 z2 | A,,2 z2 z2 | A,,2 z2 z2 | (D2 _B,3 =F, | %51
 =A,4) (F,B, | G,A, C2 E2) |!pp! z2 ([A,D]/F/[A,D]/F/[A,D]) z | %54
!pp!!ped! z2 ([A,D]/F/[A,D]/F/[A,D])!ped-up! z |!ped! z2 ([A,D]/F/[A,D]/F/[A,D])!ped-up! z | %56
!ped! z2 ([A,C]/G/[A,C]/G/[A,C])!ped-up! z |!ped! z2 ([A,C]/G/[A,C]/G/[A,C])!ped-up! z | %58
!ped! z2 ([_B,D]/=F/[B,D]/F/[B,D])!ped-up! z |!ped! z2 ([A,D]/^F/[A,D]/F/[A,D])!ped-up! z | %60
!ped! z2 ([A,E]/G/[A,E]/G/[A,E])!ped-up! z |!ped! z2 ([A,E]/G/[A,E]/G/[A,E])!ped-up! z | %62
!ped! z2 ([A,D]/F/[A,D]/F/[A,D])!ped-up! z |!ped! z2 ([A,D]/F/[A,D]/F/[A,D])!ped-up! z | %64
!ped! z2 ([A,C]/G/[A,C]/G/[A,C])!ped-up! z |!ped! z2 ([A,C]/G/[A,C]/G/[A,C])!ped-up! z | %66
!ped! z2 ([F,C]/E/[F,C]/E/[F,C])!ped-up! z |!ped! z2 ([F,C]/E/[F,C]/E/[F,C])!ped-up! z | %68
!ped! z2 ([F,B,]/D/[F,B,]/D/[F,B,])!ped-up! z |!ped! z2 ([_B,D]/G/[B,D]/G/[B,D])!ped-up! z | %70
!ped! z2 ([A,D]/F/[A,D]/F/[A,D])!ped-up! z |!ped! z2 ([A,D]/F/[A,D]/F/[A,D])!ped-up! z | %72
!ped! z2 ([G,_B,D]/E/[G,B,D]/E/[G,B,D])!ped-up! z | %73
!ped! z2 ([G,_B,D]/E/[G,B,D]/E/[A,D])!ped-up! z |!ped! z2 ([A,D]/F/[A,D]/F/[A,D])!ped-up! z | %75
!ped! z2 ([A,E]/G/[A,E]/G/[A,E])!ped-up! z |!ped! z2 ([A,D]/F/[A,D]/F/[A,D])!ped-up! z | %77
!ped! z2 ([A,D]/F/[A,D]/F/[A,D])!ped-up! z |"^M.D.""_M.G." A,,2 z2 z2 | A,,2 z2 z2 | A,,2 z2 z2 | %81
 A,,2 z2 z2 | (D2 _B,3 =F, | =A,4) F,B, | G,A, C2 E2 | %85
 !arpeggio![D,,D,] z[K:treble] !arpeggio![DFAd]2 !fermata!z2 |] %86
V:4
 D,,2 z2 z2 | D,,2 z2 z2 | D,,2 z2 z2 | F,2 z2 z2 | E,2 z2 z2 | A,,2 z2 z2 | _B,,2 z2 z2 | %7
 D,2 z2 z2 | A,,2 z2 z2 | A,,2 z2 z2 | F,,2 z2 z2 | B,,2 z2 z2 | ^G,,2 z2 z2 | A,,2 z2 z2 | %14
 ^A,,2 z2 z2 | B,,2 z2 z2 | A,,2 z2 z2 | A,,2 z2 z2 | A,,2 z2 z2 | D,,2 z2 z2 | (B,4 G,C | %21
 B,4 G,C | B,A, E3 C | B,4 A,2) | (_B,,2 z2 z2 | =A,,2 z2 z2 | A,,2 z2 z2 | D,,2) z2 z2 | %28
 D,,2 z2 z2 | F,2 z2 z2 | E,2 z2 z2 | A,,2 z2 z2 | _B,,2 z2 z2 | _B,,2 z2 z2 | _B,,2 z2 z2 | %35
 =A,,2 z2 z2 | G,,2 z2 z2 | G,,2 z2 z2 | G,,2 z2 z2 | ^C,2 z2 z2 | F,,2 z2 z2 | ^A,,2 z2 z2 | %42
 _B,,2 z2 z2 | A,,2 z2 z2 | A,,2 z2 z2 | D,,2 z2 z2 | (B,4 G,C | B,4 G,C | B,A, E3 C | B,4 A,2) | %50
 (_B,,2 z2 z2 | =A,,2) z2 z2 | (A,,2 z2 z2 | D,,2) z2 z2 | D,,2 z2 z2 | F,2 z2 z2 | E,2 z2 z2 | %57
 A,,2 z2 z2 | _B,,2 z2 z2 | D,2 z2 z2 | A,,2 z2 z2 | A,,2 z2 z2 | D,,2 z2 z2 | F,2 z2 z2 | %64
 E,2 z2 z2 | A,,2 z2 z2 | F,,2 z2 z2 | ^A,,2 z2 z2 | B,,2 z2 z2 | _B,,2 z2 z2 | A,,2 z2 z2 | %71
 A,,2 z2 z2 | G,,2 z2 z2 | G,,2 z2 z2 | A,,2 z2 z2 | A,,2 z2 z2 | D,,2 z2 z2 | D,,2 z2 z2 | %78
 (B,4 G,C | B,4 G,C | B,A, E3 C | B,4 A,2) | _B,,2 z2 z2 | =A,,2 z2 z2 | A,,2 z2 z2 | %85
 x2[K:treble] x4 |] %86
V:5
 x6 | x6 | x6 | x6 | x6 | x6 | x6 | x6 | x6 | x6 | x6 | x6 | x6 | x6 | x6 | x6 | x6 | x6 | x6 | %19
 x6 | x6 | x6 | x6 | x6 | x6 | x6 | x6 | z2 ([fa]/[db]/[fa]/[db]/[fa]) z | x6 | x6 | x6 | x6 | x6 | %33
 x6 | x6 | x6 | x6 | x6 | x6 | x6 | x6 | x6 | x6 | x6 | x6 | x6 | x6 | x6 | x6 | x6 | x6 | x6 | %52
 x6 | z2 ([fa]/[db]/[fa]/[db]/[fa]) z | x6 | x6 | x6 | x6 | x6 | x6 | x6 | x6 | x6 | x6 | x6 | x6 | %66
 x6 | x6 | x6 | x6 | x6 | x6 | x6 | x6 | x6 | x6 | x6 | x6 | x6 | x6 | x6 | x6 | x6 | x6 | x6 | %85
 x6 |] %86

